assets/imgs/report/legislature/intro/hint_desktop.svg

<svg fill="none" height="68" viewBox="0 0 32 68" width="32" xmlns="http://www.w3.org/2000/svg"><g fill="#fff"><path d="m9.42369 0h13.15221c2.5913 0 4.9491 1.05747 6.6553 2.76487 1.71 1.70399 2.7684 4.05883 2.7684 6.64684v27.98319c0 2.5918-1.0588 4.9429-2.7684 6.6507-1.7062 1.7041-4.064 2.7648-6.6553 2.7648h-13.15221c-2.5913 0-4.94914-1.0607-6.65529-2.7648-1.71-1.7078-2.7684-4.0589-2.7684-6.6507v-27.98319c0-2.58801 1.05882-4.94285 2.7684-6.64684 1.70615-1.70781 4.06399-2.76487 6.65529-2.76487zm13.15221 2.09151h-13.15221c-2.01507 0-3.84559.82379-5.17513 2.15165-1.32954 1.32785-2.15438 3.15603-2.15438 5.16855v27.98319c0 2.0125.82484 3.8445 2.15438 5.1724 1.32954 1.3278 3.16006 2.1516 5.17513 2.1516h13.15221c2.0151 0 3.8456-.8238 5.1751-2.1516 1.3296-1.3279 2.1544-3.1599 2.1544-5.1724v-27.98319c0-2.01252-.8248-3.8407-2.1544-5.16855-1.3295-1.32786-3.1596-2.15165-5.1747-2.15165z"/><path d="m17.0473 9.5127v9.0017h-2.0942v-9.0017z"/><path d="m6.11691 52.6894 9.86819 6.7296 9.8795-7.1133 1.2204 1.6889-11.0698 7.9748-11.07721-7.5535z"/><path d="m6.11691 58.7206 9.86819 6.7297 9.8795-7.1134 1.2204 1.689-11.0698 7.9747-11.07721-7.5534z"/></g></svg>

<svg width="32" height="68" viewBox="0 0 32 68" fill="none" xmlns="http://www.w3.org/2000/svg">
<path d="M9.42369 0H22.5759C25.1672 0 27.525 1.05747 29.2312 2.76487C30.9412 4.46886 31.9996 6.8237 31.9996 9.41171V37.3949C31.9996 39.9867 30.9408 42.3378 29.2312 44.0456C27.525 45.7497 25.1672 46.8104 22.5759 46.8104H9.42369C6.83239 46.8104 4.47455 45.7497 2.7684 44.0456C1.0584 42.3378 0 39.9867 0 37.3949V9.41171C0 6.8237 1.05882 4.46886 2.7684 2.76487C4.47455 1.05706 6.83239 0 9.42369 0ZM22.5759 2.09151H9.42369C7.40862 2.09151 5.5781 2.9153 4.24856 4.24316C2.91902 5.57101 2.09418 7.39919 2.09418 9.41171V37.3949C2.09418 39.4074 2.91902 41.2394 4.24856 42.5673C5.5781 43.8951 7.40862 44.7189 9.42369 44.7189H22.5759C24.591 44.7189 26.4215 43.8951 27.751 42.5673C29.0806 41.2394 29.9054 39.4074 29.9054 37.3949V9.41171C29.9054 7.39919 29.0806 5.57101 27.751 4.24316C26.4215 2.9153 24.5914 2.09151 22.5763 2.09151H22.5759Z" fill="white"/>
<path d="M17.0473 9.5127V18.5144H14.9531V9.5127H17.0473Z" fill="white"/>
<path d="M6.11691 52.6894L15.9851 59.419L25.8646 52.3057L27.085 53.9946L16.0152 61.9694L4.93799 54.4159L6.11691 52.6894Z" fill="white"/>
<path d="M6.11691 58.7206L15.9851 65.4503L25.8646 58.3369L27.085 60.0259L16.0152 68.0006L4.93799 60.4472L6.11691 58.7206Z" fill="white"/>
</svg>
